svg/color/rare.svg

<?xml version="1.0" standalone="yes"?>
<svg xmlns="http://www.w3.org/2000/svg" width="100" height="100">
<path style="fill:#030504; stroke:none;" d="M0 0L0 41L1 41C3.86998 21.5665 21.5665 3.86996 41 1C30.2501 -3.51085 11.6957 0 0 0z"/>
<path style="fill:#d9dc8b; stroke:none;" d="M40 54C37.5775 51.6489 34.6465 49.7294 32.6528 46.9599C20.034 29.431 47.8531 26.3907 48 14L54 14L54 22L67 22L68 41L67 41C63.8206 34.1999 59.3903 26.7745 52 23.9954C45.35 21.4946 36.4393 25.9898 38.3225 33.9961C39.5966 39.4126 45.5058 39.8132 47.9722 44.1327C50.4456 48.4644 47.4742 52.7787 53 55L53 45C61.5283 46.5212 64.2421 52.3406 70.4552 57.2585C80.1816 64.9572 88.3 61.5849 93 76C98.913 68.8366 100 58.9473 100 50C100 10.9525 57.7807 -12.8093 24 6.87654C10.2787 14.8727 -15.4109 52.1095 13 60.3032C19.1653 62.0813 33.9572 56.267 40 54z"/>
<path style="fill:#030504; stroke:none;" d="M60 0L60 1C79.011 3.80758 96.1903 20.9744 99 40L100 40L100 0L60 0z"/>
<path style="fill:#ff0101; stroke:none;" d="M77 7L78 8L77 7z"/>
<path style="fill:#030504; stroke:none;" d="M48 14L48 22C36.0825 22.5459 25.1316 33.9228 32.0895 45.9961C35.4337 51.799 41.8588 54.3203 48 56C48 52.3019 49.2389 45.8303 46.9722 42.6875C44.1083 38.7167 37.4301 38.1969 37.5725 31.9992C37.7364 24.8669 46.1746 21.6605 52 24.0093C58.5739 26.6598 62.4704 33.2599 66 39L67 39L66 23L53 22L53 14L48 14z"/>
<path style="fill:#74a876; stroke:none;" d="M53 14L53 22L54 22L53 14M47 21L48 22L47 21M42 22L43 23L42 22M57 22L57 23L66 23L66 28L67 28L67 22L57 22M39 23L40 24L39 23M43.6667 23.3333L44.3333 23.6667L43.6667 23.3333M51 23L52 24L51 23M37 24L38 25L37 24M41 24L42 25L41 24M53 24L54 25L53 24M36 25L37 26L36 25M40 25L41 26L40 25M55 25L56 26L55 25M39 26L40 27L39 26M56 26L57 27L56 26M38 27L39 28L38 27M32 29L33 30L32 29M37 30L37 35L38 35L37 30M60 30L61 31L60 30M31 31L32 32L31 31M61 31L62 32L61 31M30.3333 33.6667L30.6667 34.3333L30.3333 33.6667M63 34L64 35L63 34M38 36L39 37L38 36M64 36L65 37L64 36M39 37L40 38L39 37M40 38L41 39L40 38M66 39L68 41L68 39L66 39M43 40L44 41L43 40M46 41L47 42L46 41M30.3333 42.6667L30.6667 43.3333L30.3333 42.6667M48 43L48 56L49 56L48 43M31 45L32 46L31 45M53 45L53 58L54 58L53 45z"/>
<path style="fill:#030504; stroke:none;" d="M54 45C54 48.7571 53.026 54.1408 54.6034 57.625C56.512 61.8407 62.7797 63.4808 62.1991 68.9992C61.4542 76.0786 52.6163 78.2631 47 75.9907C39.7773 73.0684 34.9429 64.8208 32 58L31 58L31 78L48 78L48 86L53 86C53.2839 77.2811 59.4039 78.5504 64.7863 73.6065C72.818 66.2289 70.7505 53.949 61.9961 48.4684C59.462 46.8819 56.8512 45.8229 54 45z"/>
<path style="fill:#74a876; stroke:none;" d="M56 45L57 46L56 45M58 46L59 47L58 46M0 47C0 63.7422 4.56485 79.8249 19 90L13.3966 62.2855L0 47M32 47L33 48L32 47M60 47L61 48L60 47M33 48L34 49L33 48M62 48L63 49L62 48M34 49L35 50L34 49M63 49L64 50L63 49M35 50L36 51L35 50M38 52L39 53L38 52M40 53L41 54L40 53z"/>
<path style="fill:#45eee8; stroke:none;" d="M70 58C69.9701 68.4338 64.8798 76.362 54 78L54 86L48 86L48 78L31 78L31 57L32 57C33.2552 61.3489 35.3342 65.3141 38.0432 68.9599C41.5608 73.6938 46.9154 77.2408 53 76.8904C59.5595 76.5127 64.2976 70.4377 60.821 64.1042C59.5362 61.7636 57.1698 60.4224 55.2554 58.669C53.0809 56.6773 51.7732 55.0715 49 54C45.702 56.0903 42.7377 54.1999 39 54.5571C32.3109 55.1963 23.1372 57.0101 17.1481 60.1088C12.9625 62.2744 13.7687 67.9814 14.1705 72C15.225 82.5464 17.9141 90.9538 28 95.6767C37.7958 100.264 57.0368 103.81 66.7145 97.1458C73.3034 92.6089 90.8964 71.4483 84.0471 62.6489C81.1253 58.8952 74.291 58.8085 70 58z"/>
<path style="fill:#74a876; stroke:none;" d="M42.6667 54.3333L43.3333 54.6667L42.6667 54.3333M68 54L69 55L68 54M45 55L46 56L45 55M31 57L32 58L31 57M69 57L70 58L69 57M32 59L33 60L32 59M55 59L56 60L55 59z"/>
<path style="fill:#030504; stroke:none;" d="M0 60L0 100L40 100L40 99C17.0196 95.6062 9.65246 77.7579 0 60z"/>
<path style="fill:#74a876; stroke:none;" d="M57 60L58 61L57 60z"/>
<path style="fill:#030504; stroke:none;" d="M99 60C96.198 78.973 78.973 96.198 60 99L60 100L100 100C100 88.566 103.411 70.512 99 60z"/>
<path style="fill:#74a876; stroke:none;" d="M33 61L34 62L33 61M34 63L35 64L34 63M85 63C85.7091 77.611 73.5419 85.0992 68 97C79.7933 93.5961 105.321 73.0182 85 63M61 64L62 65L61 64M69.3333 65.6667L69.6667 66.3333L69.3333 65.6667M36 66L37 67L36 66M62 66L62 70L63 70L62 66M68 68L69 69L68 68M38 69L39 70L38 69M67 70L68 71L67 70M61 72L62 73L61 72M42 73L43 74L42 73M43 74L44 75L43 74M45 75L46 76L45 75M62 75L63 76L62 75M47 76L48 77L47 76M56 76L57 77L56 76M60 76L61 77L60 76M33 77L34 78L33 77M43.6667 77.3333L44.3333 77.6667L43.6667 77.3333M57 77L58 78L57 77M53 79L53 86L54 86L53 79z"/>
</svg>

<svg xmlns="http://www.w3.org/2000/svg" width="100" height="100"><path d="M0 0v41h1C3.87 21.567 21.567 3.87 41 1 30.25-3.51 11.696 0 0 0" style="fill:#030504;stroke:none"/><path d="M40 54c-2.422-2.351-5.353-4.27-7.347-7.04C20.034 29.43 47.853 26.39 48 14h6v8h13l1 19h-1c-3.18-6.8-7.61-14.225-15-17.005-6.65-2.5-15.56 1.995-13.678 10.001 1.275 5.417 7.184 5.817 9.65 10.137C50.446 48.464 47.474 52.779 53 55V45c8.528 1.521 11.242 7.34 17.455 12.258C80.182 64.959 88.3 61.585 93 76c5.913-7.163 7-17.053 7-26 0-39.047-42.22-62.81-76-43.123-13.721 7.996-39.41 45.232-11 53.426 6.165 1.778 20.957-4.036 27-6.303" style="fill:#d9dc8b;stroke:none"/><path d="M60 0v1c19.011 2.808 36.19 19.974 39 39h1V0z" style="fill:#030504;stroke:none"/><path d="m77 7 1 1z" style="fill:#ff0101;stroke:none"/><path d="M48 14v8c-11.917.546-22.868 11.923-15.91 23.996C35.434 51.8 41.859 54.32 48 56c0-3.698 1.239-10.17-1.028-13.312-2.864-3.971-9.542-4.491-9.4-10.689.164-7.132 8.603-10.338 14.428-7.99C58.574 26.66 62.47 33.26 66 39h1l-1-16-13-1v-8z" style="fill:#030504;stroke:none"/><path d="M53 14v8h1zm-6 7 1 1zm-5 1 1 1zm15 0v1h9v5h1v-6zm-18 1 1 1zm4.667.333.666.334zM51 23l1 1zm-14 1 1 1zm4 0 1 1zm12 0 1 1zm-17 1 1 1zm4 0 1 1zm15 0 1 1zm-16 1 1 1zm17 0 1 1zm-18 1 1 1zm-6 2 1 1zm5 1v5h1zm23 0 1 1zm-29 1 1 1zm30 0 1 1zm-30.667 2.667.334.666zM63 34l1 1zm-25 2 1 1zm26 0 1 1zm-25 1 1 1zm1 1 1 1zm26 1 2 2v-2zm-23 1 1 1zm3 1 1 1zm-15.667 1.667.334.666zM48 43v13h1zm-17 2 1 1zm22 0v13h1z" style="fill:#74a876;stroke:none"/><path d="M54 45c0 3.757-.974 9.14.603 12.625 1.909 4.216 8.177 5.856 7.596 11.374-.745 7.08-9.583 9.264-15.199 6.992C39.777 73.068 34.943 64.82 32 58h-1v20h17v8h5c.284-8.719 6.404-7.45 11.786-12.394 8.032-7.377 5.965-19.657-2.79-25.138C59.462 46.882 56.851 45.823 54 45" style="fill:#030504;stroke:none"/><path d="m56 45 1 1zm2 1 1 1zM0 47c0 16.742 4.565 32.825 19 43l-5.603-27.714zm32 0 1 1zm28 0 1 1zm-27 1 1 1zm29 0 1 1zm-28 1 1 1zm29 0 1 1zm-28 1 1 1zm3 2 1 1zm2 1 1 1z" style="fill:#74a876;stroke:none"/><path d="M70 58c-.03 10.434-5.12 18.362-16 20v8h-6v-8H31V57h1c1.255 4.349 3.334 8.314 6.043 11.96 3.518 4.734 8.872 8.28 14.957 7.93 6.56-.377 11.298-6.452 7.821-12.786-1.285-2.34-3.651-3.682-5.566-5.435C53.081 56.677 51.773 55.072 49 54c-3.298 2.09-6.262.2-10 .557-6.69.64-15.863 2.453-21.852 5.552-4.185 2.165-3.38 7.872-2.977 11.891C15.225 82.546 17.914 90.954 28 95.677c9.796 4.587 29.037 8.133 38.715 1.469 6.588-4.537 24.181-25.698 17.332-34.497C81.125 58.895 74.291 58.809 70 58" style="fill:#45eee8;stroke:none"/><path d="m42.667 54.333.666.334zM68 54l1 1zm-23 1 1 1zm-14 2 1 1zm38 0 1 1zm-37 2 1 1zm23 0 1 1z" style="fill:#74a876;stroke:none"/><path d="M0 60v40h40v-1C17.02 95.606 9.652 77.758 0 60" style="fill:#030504;stroke:none"/><path d="m57 60 1 1z" style="fill:#74a876;stroke:none"/><path d="M99 60c-2.802 18.973-20.027 36.198-39 39v1h40c0-11.434 3.411-29.488-1-40" style="fill:#030504;stroke:none"/><path d="m33 61 1 1zm1 2 1 1zm51 0c.71 14.611-11.458 22.1-17 34 11.793-3.404 37.321-23.982 17-34m-24 1 1 1zm8.333 1.667.334.666zM36 66l1 1zm26 0v4h1zm6 2 1 1zm-30 1 1 1zm29 1 1 1zm-6 2 1 1zm-19 1 1 1zm1 1 1 1zm2 1 1 1zm17 0 1 1zm-15 1 1 1zm9 0 1 1zm4 0 1 1zm-27 1 1 1zm10.667.333.666.334zM57 77l1 1zm-4 2v7h1z" style="fill:#74a876;stroke:none"/></svg>
